X: 1
T: First of May
B: Hendrickson's "John Griffiths Dancing Master."
R: jig
Z: 2004 John Chambers <jc@trillian.mit.edu>
M: 6/8
L: 1/8
Q: 3/8=104
K: G
|:"G"GB,2 CD2 | GB,2 CD2 | B2B BAG | "D7"FGA D3 \
| "G"GB,2 CD2 | GB,2 CD2 | "C"c3 "G"BAG | "D7"DEF "G"G3 :|
[|"G"d3 dBG | "Bm"def f3 | "C"e3 ecA | "D7"efg a3 \
| "G"g2d BdB | "C"cec AcA | c3 "G"BAG | "D7"DEF "G"G3 |]
%%text Play AAB
